FilmSimulator/luts/b.cube
TITLE "Generated by Resolve"
LUT_3D_SIZE 33
0 0 0.0869459
0.0272831 0 0.0865949
0.0580911 0 0.0866102
0.0889601 0 0.0866102
0.119997 0 0.0865492
0.151308 0 0.0863966
0.183032 0 0.0861372
0.215244 0 0.0857557
0.247913 0 0.0852216
0.281025 0 0.0845655
0.314519 0 0.0837873
0.348257 0 0.082948
0.382086 0 0.082063
0.415824 0 0.0811933
0.449516 0 0.0803388
0.483192 0 0.0794995
0.516258 0 0.078645
0.548852 0 0.0777905
0.581018 0 0.0769818
0.612467 0 0.0762036
0.642908 0 0.0755016
0.673243 0 0.0749065
0.703212 0 0.0744182
0.73286 0 0.074052
0.762142 0 0.0738079
0.791089 0 0.0736858
0.819699 0 0.0736858
0.848081 0 0.0737926
0.876295 0 0.0739757
0.904402 0 0.0742199
0.932494 0 0.0744945
0.960189 0 0.0747997
0.988067 0 0.0752117
0 0 0.0865797
0.0277562 0 0.0869001
0.0585641 0 0.0870069
0.0894026 0 0.0869764
0.120424 0 0.0869001
0.15172 0 0.0867475
0.183444 0 0.0864881
0.215641 0 0.0860914
0.248325 0 0.0855573
0.281453 0 0.0849165
0.314961 0 0.0841535
0.348714 0 0.0833295
0.382559 0 0.082475
0.416327 0 0.0816358
0.450065 0 0.0808118
0.483757 0 0.0800183
0.516884 0 0.0792096
0.549508 0 0.0784009
0.58172 0 0.0776379
0.613214 0 0.076936
0.643732 0 0.0762951
0.674128 0 0.075761
0.704189 0 0.075349
0.733898 0 0.0750744
0.763287 0 0.0749218
0.792309 0 0.0748913
0.821027 0 0.0749828
0.8495 0 0.0751812
0.877806 0 0.0754406
0.906004 0 0.0757763
0.934203 0 0.0761578
0.961975 0 0.0765545
0.989944 0 0.0770581
0 0.000732433 0.0865339
0.0278172 0.000747692 0.0866712
0.0586099 0.000671397 0.0869001
0.0894484 0.000564584 0.0869764
0.12047 0.000427253 0.0869001
0.151781 0.000228885 0.0867475
0.183505 0 0.0865034
0.215732 0 0.0861219
0.248417 0 0.0856184
0.281575 0 0.0849928
0.315114 0 0.0842756
0.348913 0 0.0834821
0.382788 0 0.0826734
0.416617 0 0.0818647
0.450385 0 0.0811017
0.484154 0 0.080354
0.517327 0 0.0796063
0.550011 0 0.0788739
0.5823 0 0.0781872
0.61387 0 0.0775464
0.644465 0 0.076997
0.674937 0 0.0765545
0.705104 0 0.0762493
0.734905 0 0.076051
0.76437 0 0.0759899
0.7935 0 0.076051
0.822309 0 0.0762341
0.850874 0 0.076524
0.879271 0 0.0768902
0.907576 0 0.0773327
0.935851 0 0.0777905
0.963729 0 0.078294
0.991791 0 0.0788891
0 0.0325322 0.0864729
0.0278019 0.0325475 0.0865492
0.0585946 0.0324865 0.0866255
0.0894484 0.0323949 0.0868696
0.120485 0.0322728 0.0868696
0.151812 0.0320897 0.0867475
0.183566 0.0317845 0.0865187
0.215839 0.0313878 0.086183
0.248554 0.0308385 0.0857099
0.281758 0.0301976 0.0851301
0.315358 0.0294652 0.0844587
0.349203 0.0286564 0.0837262
0.383139 0.0278325 0.0829633
0.417014 0.0270237 0.0822309
0.450874 0.0262608 0.081529
0.484688 0.0255131 0.0808576
0.517952 0.0247807 0.0802014
0.550713 0.0240635 0.0795453
0.583093 0.0233921 0.0789502
0.61474 0.0227817 0.0784161
0.645426 0.0222629 0.0779583
0.676005 0.0218357 0.0776074
0.706264 0.0215457 0.0773785
0.736156 0.0213779 0.0772869
0.765728 0.0213321 0.0773175
0.794934 0.0214237 0.0774701
0.823835 0.0216373 0.07776
0.852491 0.0219425 0.0781415
0.880995 0.0223392 0.0785992
0.909377 0.0227817 0.079118
0.937758 0.0232853 0.0796826
0.965728 0.0237888 0.0802625
0.993881 0.0244144 0.0809491
0 0.0644388 0.0862745
0.0276493 0.0644694 0.0863661
0.0584726 0.0644236 0.0863813
0.0893568 0.0643626 0.0865492
0.120439 0.0642863 0.0867781
0.151812 0.0641337 0.0867018
0.183597 0.0638895 0.0865187
0.215915 0.0635233 0.0862287
0.248692 0.0630503 0.0858167
0.281956 0.0624552 0.0852979
0.315618 0.0617838 0.0846876
0.349523 0.0610513 0.0840162
0.383536 0.0603037 0.0833448
0.417502 0.0595712 0.0826886
0.451453 0.0588998 0.0820783
0.485359 0.0582589 0.0814984
0.5187 0.0576028 0.0809339
0.551568 0.0569924 0.0803693
0.584039 0.0564126 0.0798657
0.615763 0.0558938 0.0794232
0.64654 0.0554665 0.079057
0.677226 0.0551308 0.0787976
0.707561 0.0549325 0.0786755
0.73756 0.0548562 0.0786603
0.767208 0.0549172 0.0787976
0.796521 0.0551003 0.0790417
0.825528 0.0554055 0.0794232
0.854276 0.0558022 0.0798962
0.882856 0.0562905 0.0804456
0.911345 0.0568246 0.0810559
0.939803 0.0574044 0.0817121
0.967849 0.0579995 0.0823682
0.996063 0.0586862 0.0831311
0 0.0965286 0.085893
0.0273442 0.0966049 0.0860304
0.0582132 0.0965896 0.0860761
0.0891432 0.0965896 0.0861372
0.120272 0.0965591 0.0864118
0.151705 0.0964675 0.0865492
0.183551 0.0962692 0.0864424
0.215946 0.0959793 0.0862135
0.248798 0.0955825 0.0858778
0.282124 0.0950637 0.0854353
0.315877 0.0944839 0.0849012
0.349874 0.0938277 0.0843366
0.383978 0.0931868 0.0837415
0.418036 0.092546 0.0831769
0.452079 0.0919661 0.0826734
0.486076 0.0914168 0.0821851
0.519509 0.0908522 0.0817121
0.552468 0.0903334 0.081239
0.585016 0.0898451 0.080827
0.616831 0.0894331 0.0804761
0.647715 0.0890822 0.0802167
0.678477 0.0888533 0.0800488
0.708919 0.0887465 0.0800183
0.73901 0.0887617 0.0800946
0.76875 0.0889143 0.0803235
0.798154 0.089189 0.0806592
0.827253 0.0895705 0.0811322
0.856077 0.0900587 0.0816815
0.884733 0.0906233 0.0823072
0.913298 0.0912337 0.0829938
0.941817 0.0918898 0.083711
0.969924 0.0925307 0.0844434
0.998199 0.0932784 0.0852522
0 0.128908 0.0852827
0.0268254 0.129046 0.0854658
0.0577401 0.129107 0.0855726
0.0887312 0.129152 0.0856947
0.119936 0.129183 0.085893
0.151431 0.129168 0.0862135
0.183368 0.129076 0.0862287
0.215839 0.128862 0.0860761
0.248798 0.128557 0.0858473
0.282216 0.12813 0.0854963
0.316045 0.127642 0.0850538
0.350149 0.127077 0.0845808
0.384344 0.126528 0.0840925
0.418494 0.125978 0.0836194
0.452628 0.12549 0.0831922
0.486732 0.125032 0.0828107
0.520241 0.124575 0.082414
0.553292 0.124147 0.0820478
0.585946 0.123751 0.0817273
0.617838 0.12343 0.0814679
0.648814 0.123186 0.0813001
0.679667 0.123049 0.0812238
0.710201 0.123033 0.0812848
0.740383 0.123125 0.0814527
0.770214 0.123354 0.0817578
0.799695 0.123705 0.0821698
0.82884 0.124163 0.0827039
0.85774 0.124712 0.0833295
0.886458 0.125338 0.0840162
0.915068 0.125994 0.0847486
0.943633 0.126696 0.0855116
0.971786 0.127382 0.0862898
1 0.128161 0.087129
0 0.161715 0.0844129
0.0260471 0.161913 0.0846723
0.0570535 0.162051 0.0848707
0.0881361 0.162188 0.085069
0.119417 0.16231 0.0852522
0.151019 0.162387 0.0856184
0.183047 0.162371 0.0858625
0.21561 0.162264 0.0858167
0.248646 0.162051 0.0856641
0.28217 0.161715 0.08542
0.316106 0.161318 0.085069
0.350286 0.160861 0.0846876
0.384573 0.160388 0.0842908
0.41883 0.159945 0.0839094
0.453056 0.159548 0.0835889
0.487236 0.159182 0.0832837
0.520851 0.158816 0.0829938
0.553979 0.158465 0.0827192
0.586725 0.158175 0.0824903
0.618708 0.157931 0.0823377
0.649775 0.157778 0.0822309
0.680705 0.157717 0.0822461
0.711299 0.157763 0.0823682
0.741543 0.157946 0.0826123
0.771435 0.158221 0.0829786
0.800977 0.158633 0.0834516
0.830182 0.159136 0.0840314
0.859113 0.159747 0.0847028
0.887877 0.160388 0.0854353
0.916533 0.161089 0.0861982
0.945129 0.161822 0.0869917
0.973297 0.162539 0.0877852
1 0.163333 0.0886549
0 0.194873 0.08336
0.0251316 0.195163 0.083711
0.0562142 0.195392 0.0840009
0.0873884 0.195621 0.0843061
0.118761 0.19585 0.0845808
0.150454 0.196017 0.0849012
0.182589 0.196109 0.0853132
0.215244 0.196078 0.08542
0.248371 0.195956 0.085359
0.281987 0.195727 0.0852064
0.316014 0.195422 0.0849622
0.350286 0.195056 0.0846571
0.38468 0.19469 0.0843671
0.419013 0.194339 0.0840772
0.45333 0.194034 0.0838483
0.487602 0.193759 0.0836347
0.521309 0.1935 0.0834363
0.554528 0.19324 0.083238
0.587335 0.193011 0.0830854
0.619379 0.192859 0.0829938
0.650507 0.192752 0.0829633
0.681514 0.192752 0.0830396
0.712169 0.192874 0.0832227
0.742458 0.193088 0.0835126
0.772396 0.193423 0.0839094
0.801968 0.193866 0.0844282
0.831205 0.194415 0.0850385
0.860166 0.195041 0.0857404
0.88896 0.195727 0.0864881
0.917617 0.196445 0.0872816
0.946227 0.197192 0.0880903
0.974411 0.19791 0.0888838
1 0.198718 0.0897688
0 0.22829 0.0821851
0.0240635 0.228672 0.0826276
0.0552529 0.228992 0.0830091
0.0865187 0.229313 0.0833906
0.117983 0.229633 0.083772
0.149767 0.229908 0.0840925
0.181994 0.230076 0.0845655
0.214725 0.230152 0.0848859
0.247959 0.230137 0.0849317
0.281666 0.229999 0.0848554
0.315785 0.229786 0.0847028
0.350164 0.229526 0.0845045
0.384634 0.229236 0.0842908
0.419059 0.228977 0.0840925
0.453468 0.228763 0.0839399
0.4878 0.228565 0.0838178
0.521569 0.228351 0.0836805
0.554849 0.228168 0.0835431
0.587716 0.228 0.0834516
0.619806 0.227893 0.0834058
0.65098 0.227848 0.0834363
0.682017 0.227893 0.0835431
0.712718 0.228046 0.0837568
0.743038 0.228305 0.0840772
0.773007 0.228656 0.0845197
0.802594 0.229129 0.0850538
0.831846 0.229694 0.0856794
0.860838 0.230335 0.0863966
0.889616 0.231022 0.0871443
0.918288 0.231754 0.0879377
0.946899 0.232486 0.0887465
0.975067 0.233219 0.0895399
1 0.233997 0.0903944
0 0.261997 0.0809339
0.0229343 0.26247 0.0814679
0.0542153 0.262882 0.0819409
0.0855726 0.26331 0.0824292
0.117128 0.263722 0.0829023
0.149004 0.264088 0.0833143
0.181323 0.264363 0.0837568
0.21416 0.26453 0.0842603
0.247486 0.264591 0.0844282
0.281285 0.264561 0.0844434
0.31548 0.264424 0.0843824
0.349935 0.26424 0.0842603
0.384482 0.264042 0.084123
0.418967 0.263844 0.0839857
0.453437 0.263691 0.0838941
0.487831 0.263554 0.0838178
0.521645 0.263401 0.0837262
0.554955 0.263249 0.08365
0.587869 0.263127 0.0836042
0.619989 0.263066 0.0835889
0.651194 0.26305 0.0836347
0.682261 0.263111 0.083772
0.712978 0.263294 0.0840162
0.743313 0.263569 0.0843519
0.773297 0.263935 0.0847944
0.802899 0.264408 0.0853285
0.832135 0.264973 0.0859693
0.861112 0.265614 0.0866712
0.889891 0.2663 0.0874189
0.918547 0.267002 0.0881971
0.947143 0.26772 0.0889754
0.97528 0.268421 0.0897383
1 0.269184 0.0905623
0 0.295949 0.0797436
0.0218509 0.296529 0.0803845
0.0532387 0.297032 0.0809491
0.0846876 0.297566 0.081529
0.11635 0.29807 0.0820935
0.148318 0.298528 0.0825971
0.180713 0.298878 0.0830243
0.213642 0.299138 0.0836042
0.247028 0.29929 0.0839551
0.280903 0.299306 0.0840467
0.31516 0.299245 0.0840467
0.349676 0.299123 0.0839704
0.384268 0.29897 0.0838941
0.418814 0.298833 0.0838026
0.453315 0.298726 0.0837568
0.487755 0.298619 0.0837262
0.521599 0.298512 0.0836652
0.55494 0.29839 0.0836194
0.587869 0.298299 0.0835889
0.620005 0.298238 0.0835889
0.651225 0.298238 0.08365
0.682307 0.298329 0.0838026
0.713008 0.298497 0.0840467
0.743358 0.298772 0.0843824
0.773312 0.299138 0.0848096
0.802899 0.299611 0.0853437
0.832135 0.30016 0.0859541
0.861097 0.300771 0.0866255
0.889845 0.301427 0.0873426
0.918456 0.302113 0.0880903
0.947036 0.302815 0.0888685
0.975189 0.303517 0.0896315
1 0.304295 0.0904707
0 0.330129 0.0787366
0.0209506 0.3308 0.0794537
0.05243 0.331395 0.0801099
0.0839551 0.332006 0.0807813
0.115694 0.332586 0.0814221
0.147738 0.33312 0.082002
0.180209 0.333547 0.0824903
0.213199 0.333867 0.0830243
0.246647 0.334081 0.0835431
0.280568 0.334157 0.0836805
0.31487 0.334142 0.0837262
0.349432 0.334066 0.083711
0.384054 0.333944 0.0836652
0.418631 0.333837 0.0836042
0.453162 0.333761 0.0835889
0.487617 0.333684 0.0835737
0.521477 0.333577 0.0835279
0.554833 0.333471 0.0834821
0.587762 0.333394 0.0834669
0.619898 0.333349 0.0834821
0.651118 0.333333 0.0835279
0.682185 0.33341 0.0836652
0.712871 0.333577 0.0838941
0.743191 0.333837 0.0842145
0.773129 0.334173 0.0846265
0.802701 0.334615 0.0851148
0.831907 0.335134 0.0857099
0.860838 0.335744 0.0863813
0.889601 0.336416 0.0870985
0.918242 0.337118 0.0878767
0.946853 0.33785 0.0886702
0.975021 0.338567 0.0894484
1 0.339376 0.0903182
0 0.363989 0.0779889
0.0203098 0.364736 0.0787823
0.0518502 0.365423 0.0795148
0.0834516 0.366094 0.0802472
0.115251 0.366751 0.0809491
0.147341 0.367346 0.08159
0.179858 0.367834 0.0821393
0.212894 0.368215 0.0826123
0.246387 0.36846 0.0831922
0.280339 0.368582 0.0834516
0.314672 0.368612 0.0835126
0.349264 0.368551 0.0835279
0.383902 0.368475 0.0834821
0.418494 0.368383 0.0834516
0.45304 0.368322 0.0834363
0.487495 0.368261 0.0834211
0.521355 0.368154 0.0833906
0.554696 0.368063 0.0833448
0.587625 0.367971 0.083299
0.61973 0.36791 0.083299
0.650919 0.367895 0.0833295
0.681956 0.367956 0.0834516
0.712627 0.368093 0.0836347
0.742931 0.368338 0.0839399
0.772869 0.368688 0.0843366
0.802441 0.369146 0.0848554
0.831662 0.369696 0.0854658
0.860639 0.370336 0.0861524
0.889418 0.371038 0.0869001
0.918074 0.371771 0.0876936
0.946685 0.372519 0.0885023
0.974868 0.373266 0.0892958
1 0.37409 0.0901656
0 0.397894 0.0775769
0.0199741 0.398703 0.0784314
0.0515602 0.399435 0.0792096
0.0832074 0.400168 0.0799878
0.115053 0.40087 0.0807355
0.147189 0.401495 0.0814069
0.179736 0.402029 0.0819867
0.212802 0.402426 0.0824445
0.246311 0.402701 0.0829938
0.280278 0.402838 0.08336
0.314626 0.402869 0.0834516
0.349218 0.402838 0.0834669
0.383871 0.402747 0.0834363
0.418463 0.402655 0.0833906
0.452995 0.402579 0.0833753
0.487434 0.402502 0.0833448
0.521263 0.402396 0.083299
0.554589 0.402274 0.0832227
0.587488 0.402152 0.0831617
0.619562 0.40206 0.0831159
0.650736 0.402029 0.0831464
0.681773 0.40209 0.0832532
0.712474 0.402258 0.0834669
0.742794 0.402518 0.0837873
0.772747 0.402899 0.0842145
0.80235 0.403372 0.0847486
0.831586 0.403937 0.0853742
0.860578 0.404593 0.0860914
0.889357 0.405295 0.0868391
0.918029 0.406043 0.0876326
0.946639 0.40679 0.0884413
0.974823 0.407538 0.0892348
1 0.408347 0.0901198
0 0.431907 0.0773175
0.0197757 0.432761 0.0782177
0.0514076 0.433539 0.0790417
0.0830854 0.434287 0.0798505
0.114946 0.435019 0.0806134
0.147112 0.435676 0.0813153
0.179675 0.43621 0.0819104
0.212741 0.436622 0.0823682
0.246265 0.436896 0.0828412
0.280232 0.437049 0.083299
0.31458 0.437064 0.0833906
0.349157 0.437018 0.0833906
0.383795 0.436927 0.0833448
0.418357 0.436805 0.0832837
0.452873 0.436713 0.083238
0.487266 0.436606 0.0831769
0.52108 0.436469 0.0831006
0.554391 0.436332 0.0830091
0.587304 0.43624 0.0829633
0.619394 0.436164 0.082948
0.650599 0.436164 0.0829938
0.681666 0.43624 0.0831311
0.712367 0.436423 0.08336
0.742702 0.436713 0.0836957
0.772671 0.437095 0.0841382
0.802274 0.437583 0.0846723
0.831525 0.438163 0.0853132
0.860517 0.438819 0.0860151
0.889311 0.439521 0.0867781
0.917967 0.440253 0.0875715
0.946578 0.441001 0.088365
0.974746 0.441749 0.0891585
1 0.442557 0.090013
0 0.466346 0.0771038
0.0195926 0.467216 0.0780194
0.0512398 0.468009 0.0788586
0.082948 0.468772 0.0796826
0.114809 0.469505 0.0804608
0.146975 0.470146 0.0811627
0.179538 0.47068 0.0817578
0.212604 0.471092 0.0822156
0.246113 0.471351 0.0825971
0.280064 0.471473 0.0830396
0.314382 0.471473 0.0831769
0.348943 0.471397 0.0831464
0.383536 0.47126 0.0830701
0.418082 0.471122 0.0829938
0.452598 0.471015 0.082948
0.487022 0.470924 0.0829023
0.520851 0.470817 0.0828565
0.554177 0.470695 0.0827955
0.587106 0.470603 0.0827649
0.619211 0.470558 0.0827649
0.650431 0.470558 0.082826
0.681514 0.470649 0.0829633
0.71223 0.470832 0.0832074
0.742565 0.471107 0.0835431
0.772534 0.471489 0.0839857
0.802136 0.471977 0.084535
0.831388 0.472541 0.0851606
0.860365 0.473182 0.0858625
0.889143 0.473869 0.0866102
0.917784 0.474586 0.0873732
0.94638 0.475319 0.0881666
0.974533 0.47602 0.0889296
1 0.476799 0.0897688
0 0.50103 0.0769207
0.01944 0.501915 0.0778515
0.0510872 0.502693 0.0786908
0.0827955 0.503471 0.0795148
0.114656 0.504189 0.080293
0.146792 0.504814 0.0809796
0.179355 0.505333 0.0815442
0.21239 0.505714 0.0819715
0.245869 0.505943 0.0822614
0.279789 0.506035 0.0826734
0.314107 0.50602 0.0828717
0.348653 0.505943 0.0828565
0.383276 0.505837 0.0827955
0.417853 0.50573 0.0827497
0.452384 0.505638 0.0827192
0.486824 0.505562 0.0827039
0.520668 0.50547 0.0826581
0.554009 0.505364 0.0826123
0.586938 0.505287 0.0825818
0.619058 0.505241 0.0825971
0.650278 0.505241 0.0826581
0.681346 0.505333 0.0828107
0.712062 0.505501 0.0830396
0.742397 0.505776 0.0833753
0.772366 0.506157 0.0838026
0.801953 0.50663 0.0843366
0.831174 0.507179 0.084947
0.860136 0.507805 0.0856336
0.888899 0.508476 0.0863508
0.917525 0.509163 0.0871138
0.94609 0.509865 0.0878614
0.974197 0.510536 0.0886091
1 0.511284 0.0894026
0 0.535821 0.0768139
0.0193332 0.53669 0.0777295
0.0509651 0.537453 0.0785534
0.0826429 0.538201 0.0793469
0.114473 0.538888 0.0800946
0.146593 0.539498 0.0807507
0.17911 0.539986 0.0813001
0.212146 0.540352 0.0817273
0.24564 0.540597 0.0820325
0.279591 0.540719 0.0823835
0.313924 0.540734 0.0826734
0.348501 0.540673 0.0826886
0.383139 0.540566 0.0826429
0.417731 0.540475 0.0825971
0.452262 0.540398 0.0825818
0.486717 0.540322 0.0825818
0.520562 0.54023 0.082536
0.553903 0.540139 0.0824903
0.586847 0.540047 0.082475
0.618936 0.540002 0.082475
0.650156 0.540002 0.082536
0.681224 0.540063 0.0826734
0.711925 0.54023 0.0829023
0.742245 0.54049 0.0832074
0.772183 0.540841 0.0836194
0.801755 0.541283 0.0841382
0.830961 0.541817 0.0847181
0.859892 0.542412 0.0853742
0.888609 0.543053 0.0860609
0.917205 0.543694 0.0867781
0.945724 0.544366 0.0875105
0.973816 0.544991 0.0881971
1 0.545693 0.0889601
0 0.570764 0.0767529
0.0192569 0.571603 0.0776379
0.0508583 0.572335 0.0784314
0.0825208 0.573053 0.0792096
0.114366 0.573739 0.0799573
0.146487 0.574365 0.0806439
0.179034 0.574868 0.0812085
0.2121 0.575265 0.0816663
0.245609 0.575525 0.0819867
0.279576 0.575647 0.0822919
0.313924 0.575677 0.0826429
0.348501 0.575616 0.0826734
0.383154 0.575525 0.0826429
0.417746 0.575433 0.0826123
0.452293 0.575357 0.0825971
0.486732 0.57528 0.0825818
0.520577 0.575189 0.082536
0.553903 0.575067 0.0824903
0.586831 0.574975 0.0824598
0.618906 0.574899 0.0824445
0.650111 0.574868 0.0824903
0.681163 0.574929 0.0825971
0.711833 0.575067 0.0827955
0.742123 0.575296 0.0830854
0.772045 0.575616 0.0834821
0.801572 0.576028 0.0839551
0.830747 0.576516 0.0845045
0.859632 0.577066 0.0851148
0.888319 0.577661 0.085771
0.916869 0.578256 0.0864424
0.945342 0.578866 0.0871138
0.973373 0.579461 0.0877546
1 0.580102 0.0884718
0 0.605951 0.0767987
0.0193332 0.60679 0.0776989
0.0509499 0.607553 0.0785077
0.0826429 0.608286 0.0793164
0.114504 0.609003 0.0800946
0.146654 0.609628 0.0807813
0.179217 0.610147 0.0813764
0.212284 0.610544 0.0818341
0.245808 0.610819 0.0821546
0.279774 0.610941 0.082414
0.314122 0.610971 0.0827649
0.348714 0.61091 0.0828717
0.383352 0.610803 0.082826
0.417945 0.610697 0.0827955
0.452476 0.61062 0.0827649
0.4869 0.610529 0.0827344
0.520729 0.610407 0.0826886
0.55404 0.610254 0.0826123
0.586938 0.610132 0.0825513
0.618997 0.61004 0.0825208
0.650172 0.609979 0.082536
0.681193 0.609995 0.0826276
0.711833 0.610101 0.0827955
0.742077 0.610285 0.0830396
0.771954 0.610559 0.0833906
0.80145 0.610925 0.0838178
0.830579 0.611368 0.0843214
0.859419 0.611872 0.0848859
0.888045 0.612406 0.0854963
0.916533 0.61294 0.0861067
0.944961 0.613489 0.086717
0.97293 0.614008 0.0873121
1 0.614572 0.087953
0 0.641199 0.0771801
0.0197299 0.642054 0.0780957
0.0513771 0.642832 0.0789197
0.0830701 0.643595 0.0797436
0.114946 0.644312 0.0805219
0.147097 0.644953 0.0812238
0.179675 0.645472 0.0818189
0.212741 0.645884 0.0822766
0.246265 0.646143 0.0826123
0.280232 0.646265 0.0827955
0.314565 0.646281 0.0831464
0.349157 0.64622 0.083299
0.38378 0.646113 0.083238
0.418341 0.645975 0.0831922
0.452873 0.645884 0.0831464
0.487266 0.645762 0.0831006
0.521065 0.645609 0.0830091
0.55436 0.645457 0.0829175
0.587213 0.645289 0.082826
0.619242 0.645167 0.0827649
0.65037 0.645075 0.0827344
0.681346 0.645045 0.0827802
0.71194 0.645106 0.0829023
0.742153 0.645243 0.0831006
0.771984 0.645472 0.0834058
0.801419 0.645777 0.083772
0.830488 0.646159 0.0842298
0.859266 0.646601 0.0847334
0.887846 0.647074 0.0852827
0.916259 0.647562 0.0858167
0.94461 0.648035 0.0863661
0.972503 0.648478 0.0868849
1 0.648966 0.0874495
0 0.676356 0.0779278
0.0205081 0.677226 0.0788586
0.0521553 0.678004 0.0796979
0.0838636 0.678767 0.0805219
0.11574 0.679484 0.0813001
0.14789 0.680125 0.082002
0.180453 0.680644 0.0825818
0.213519 0.681041 0.0830396
0.247013 0.6813 0.08336
0.28098 0.681407 0.0835279
0.315297 0.681407 0.0838026
0.349859 0.681315 0.0839857
0.384466 0.681178 0.0839094
0.418997 0.681025 0.0838331
0.453483 0.680903 0.0837568
0.487861 0.680751 0.0836805
0.521614 0.680568 0.0835584
0.554864 0.680354 0.0834211
0.587686 0.680156 0.0832837
0.619654 0.679988 0.0831769
0.650752 0.67985 0.0831006
0.681666 0.679774 0.0831006
0.712215 0.679774 0.0831617
0.742367 0.67985 0.0833143
0.772137 0.680018 0.0835431
0.801511 0.680262 0.0838636
0.830503 0.680583 0.0842451
0.85922 0.680949 0.0846723
0.887724 0.681346 0.0851453
0.91606 0.681758 0.0856184
0.944335 0.682155 0.0860914
0.972168 0.682536 0.0865339
1 0.682963 0.0870222
0 0.711391 0.0790417
0.0216373 0.712261 0.0799573
0.0532692 0.713039 0.0807965
0.0849775 0.713802 0.0816205
0.116838 0.714519 0.0823835
0.148974 0.715145 0.0830701
0.181521 0.715648 0.08365
0.214572 0.716014 0.0840772
0.248051 0.716243 0.0843824
0.281987 0.716335 0.084535
0.316274 0.716304 0.0847028
0.350805 0.716197 0.0849165
0.385367 0.716014 0.0848096
0.419883 0.715831 0.0847028
0.454337 0.715663 0.0845808
0.488655 0.715465 0.0844587
0.522362 0.715236 0.0842908
0.555566 0.714977 0.0841077
0.588342 0.714733 0.0839246
0.620249 0.714504 0.0837568
0.651286 0.714305 0.0836347
0.682139 0.714168 0.0835584
0.712612 0.714107 0.0835584
0.742702 0.714107 0.0836347
0.772396 0.714214 0.0838026
0.801694 0.714382 0.0840467
0.830625 0.714626 0.0843519
0.859266 0.714916 0.0847181
0.887678 0.715251 0.0851148
0.915953 0.715587 0.0855116
0.944167 0.715908 0.0859083
0.971908 0.716213 0.0862745
0.999802 0.716564 0.0867018
0 0.746288 0.0804608
0.0230564 0.747158 0.0813916
0.0546883 0.747921 0.0822003
0.0863661 0.748653 0.0830091
0.118212 0.74934 0.0837568
0.150332 0.74995 0.0844282
0.182864 0.750439 0.0849622
0.215869 0.750774 0.0853742
0.249317 0.750973 0.0856336
0.283207 0.751034 0.0857557
0.317479 0.750957 0.0858473
0.351965 0.750805 0.0860304
0.386496 0.750591 0.0859236
0.420951 0.750347 0.0857557
0.455344 0.750134 0.0855879
0.489616 0.749889 0.0854047
0.523262 0.749599 0.0851911
0.556405 0.749279 0.084947
0.58912 0.748974 0.0847028
0.620951 0.748669 0.0844587
0.651911 0.748394 0.0842603
0.682704 0.748196 0.084123
0.713115 0.748058 0.0840467
0.743114 0.747997 0.084062
0.772732 0.748012 0.0841535
0.801968 0.748119 0.0843214
0.830823 0.748287 0.0845502
0.859388 0.748516 0.0848402
0.887755 0.748775 0.0851606
0.915953 0.749035 0.0854963
0.944091 0.749294 0.085832
0.971771 0.749523 0.0861219
0.999573 0.749798 0.0864729
0 0.781018 0.0821851
0.0247654 0.781857 0.0830854
0.0563821 0.782589 0.0838788
0.0880293 0.783307 0.0846571
0.119844 0.783963 0.0853742
0.151934 0.784543 0.0860151
0.184421 0.78497 0.0865187
0.217395 0.785275 0.0868849
0.250797 0.785443 0.0870985
0.284642 0.785443 0.0871748
0.318853 0.785336 0.0871748
0.353292 0.785122 0.0872969
0.387762 0.784848 0.0871901
0.422156 0.784558 0.0869612
0.456504 0.784283 0.0867475
0.490715 0.783963 0.0864881
0.524285 0.783612 0.0862135
0.557351 0.78323 0.085893
0.58999 0.782834 0.0855726
0.621759 0.782467 0.0852674
0.652644 0.782132 0.0849928
0.68336 0.781842 0.0847791
0.713695 0.781628 0.0846265
0.743633 0.781506 0.0845655
0.773175 0.78146 0.0845808
0.802335 0.781476 0.0846723
0.831113 0.781582 0.0848402
0.859617 0.781735 0.085069
0.887892 0.781918 0.0853132
0.91603 0.782101 0.0855726
0.944091 0.7823 0.085832
0.97171 0.782452 0.0860609
0.999451 0.782666 0.0863355
0 0.815518 0.0841382
0.0267033 0.816327 0.085008
0.0582742 0.817029 0.085771
0.0898909 0.817716 0.0865034
0.12166 0.818326 0.0871748
0.153704 0.81886 0.0877699
0.186145 0.819257 0.0882429
0.219074 0.819501 0.0885481
0.25243 0.819608 0.088716
0.286213 0.819562 0.0887312
0.320378 0.819394 0.0886244
0.354742 0.81912 0.0886854
0.389151 0.818784 0.0885634
0.423484 0.818418 0.0882582
0.45774 0.818067 0.0879683
0.491875 0.817685 0.0876478
0.525383 0.817258 0.0872969
0.558373 0.8168 0.0869001
0.590936 0.816342 0.0865034
0.622629 0.8159 0.0861372
0.653452 0.815488 0.0857862
0.684092 0.815122 0.0854963
0.714351 0.814847 0.0852827
0.744213 0.814649 0.0851453
0.773693 0.814527 0.0850996
0.802777 0.814481 0.0851148
0.831495 0.814511 0.0852064
0.859922 0.814588 0.085359
0.888121 0.814694 0.0855421
0.916182 0.814817 0.0857252
0.944183 0.814939 0.0859083
0.97171 0.815015 0.0860609
0.99939 0.815152 0.0862745
0 0.849821 0.0862135
