FilmSimulator/luts/b.cube
TITLE "Generated by Resolve"
LUT_3D_SIZE 5
0 0 0.0869459
0.247913 0 0.0852216
0.516258 0 0.078645
0.762142 0 0.0738079
0.988067 0 0.0752117
0 0.194873 0.08336
0.248371 0.195956 0.085359
0.521309 0.1935 0.0834363
0.772396 0.193423 0.0839094
1 0.198718 0.0897688
0 0.466346 0.0771038
0.246113 0.471351 0.0825971
0.520851 0.470817 0.0828565
0.772534 0.471489 0.0839857
1 0.476799 0.0897688
0 0.746288 0.0804608
0.249317 0.750973 0.0856336
0.523262 0.749599 0.0851911
0.772732 0.748012 0.0841535
0.999573 0.749798 0.0864729
0.00672923 1 0.0953536
0.260471 1 0.0967269
0.530022 1 0.0919051
0.775372 1 0.0867628
0.999023 1 0.085893
0.000900282 0 0.237552
0.251926 0 0.236149
0.520424 0 0.229679
0.76669 0 0.225238
0.99321 0 0.227222
0 0.199725 0.23563
0.253803 0.201419 0.237751
0.52726 0.199496 0.236301
0.778607 0.199741 0.237049
1 0.205066 0.242908
0 0.472679 0.2309
0.252369 0.477623 0.236194
0.527123 0.477119 0.236072
0.77879 0.477821 0.237171
1 0.482994 0.242786
0 0.752605 0.234257
0.255421 0.757092 0.239155
0.528984 0.755352 0.237858
0.777951 0.753307 0.236286
1 0.754635 0.238117
0.011841 1 0.247974
0.26511 1 0.248798
0.534279 1 0.243122
0.779385 1 0.237705
1 1 0.236744
0.00175479 0 0.454185
0.252766 0 0.452445
0.521447 0 0.445884
0.768139 0 0.441611
0.995254 0 0.443824
0.00106813 0.201602 0.453483
0.256229 0.203906 0.455894
0.530114 0.202472 0.454597
0.781582 0.202914 0.455192
1 0.208194 0.460624
0 0.475822 0.450187
0.255406 0.480644 0.455039
0.53019 0.480262 0.454704
0.781735 0.480919 0.455421
1 0.485908 0.460472
0.00112917 0.755703 0.453529
0.258213 0.75993 0.457847
0.531289 0.757794 0.455817
0.779706 0.755276 0.453437
1 0.75613 0.454429
0.0135958 1 0.465995
0.266407 1 0.466041
0.535195 1 0.459724
0.780056 1 0.453803
1 1 0.452491
0.00198367 0 0.720256
0.253071 0 0.718135
0.522026 0 0.711421
0.769192 0 0.707195
0.996902 0 0.709484
0.002533 0.203128 0.721126
0.258289 0.206027 0.723674
0.532479 0.204974 0.722271
0.783948 0.205554 0.722469
1 0.210712 0.72726
0.000320439 0.478355 0.719081
0.257893 0.483146 0.723445
0.532677 0.482826 0.722683
0.784024 0.483391 0.722805
1 0.488136 0.727077
0.00352483 0.75816 0.722393
0.260304 0.762097 0.725978
0.53286 0.759487 0.723003
0.780697 0.756512 0.719646
1 0.756924 0.719661
0.0146029 1 0.733532
0.267002 1 0.732738
0.535439 1 0.725673
0.780087 1 0.719142
1 1 0.717357
0.00373846 0 0.980468
0.254994 0 0.978515
0.524285 0 0.972229
0.771923 0 0.968597
1 0 0.971496
0.00570687 0.206378 0.982757
0.262013 0.209827 0.985855
0.5364 0.209079 0.984756
0.787793 0.209689 0.984985
1 0.214786 0.989715
0.0043183 0.482368 0.981537
0.261936 0.48719 0.985946
0.536645 0.486885 0.985199
0.787732 0.487327 0.985183
1 0.491753 0.989151
0.00735485 0.762051 0.98468
0.263767 0.765621 0.987884
0.53576 0.762554 0.984451
0.783017 0.759121 0.980636
1 0.759106 0.98024
0.016968 1 0.994354
0.269001 1 0.993194
0.537148 1 0.985931
0.781628 1 0.979355
1 1 0.977203
