FilmSimulator/luts/b.cube
TITLE "Generated by Resolve"
LUT_3D_SIZE 9
0 0 0.0869459
0.119997 0 0.0865492
0.247913 0 0.0852216
0.382086 0 0.082063
0.516258 0 0.078645
0.642908 0 0.0755016
0.762142 0 0.0738079
0.876295 0 0.0739757
0.988067 0 0.0752117
0 0.0644388 0.0862745
0.120439 0.0642863 0.0867781
0.248692 0.0630503 0.0858167
0.383536 0.0603037 0.0833448
0.5187 0.0576028 0.0809339
0.64654 0.0554665 0.079057
0.767208 0.0549172 0.0787976
0.882856 0.0562905 0.0804456
0.996063 0.0586862 0.0831311
0 0.194873 0.08336
0.118761 0.19585 0.0845808
0.248371 0.195956 0.085359
0.38468 0.19469 0.0843671
0.521309 0.1935 0.0834363
0.650507 0.192752 0.0829633
0.772396 0.193423 0.0839094
0.88896 0.195727 0.0864881
1 0.198718 0.0897688
0 0.330129 0.0787366
0.115694 0.332586 0.0814221
0.246647 0.334081 0.0835431
0.384054 0.333944 0.0836652
0.521477 0.333577 0.0835279
0.651118 0.333333 0.0835279
0.773129 0.334173 0.0846265
0.889601 0.336416 0.0870985
1 0.339376 0.0903182
0 0.466346 0.0771038
0.114809 0.469505 0.0804608
0.246113 0.471351 0.0825971
0.383536 0.47126 0.0830701
0.520851 0.470817 0.0828565
0.650431 0.470558 0.082826
0.772534 0.471489 0.0839857
0.889143 0.473869 0.0866102
1 0.476799 0.0897688
0 0.605951 0.0767987
0.114504 0.609003 0.0800946
0.245808 0.610819 0.0821546
0.383352 0.610803 0.082826
0.520729 0.610407 0.0826886
0.650172 0.609979 0.082536
0.771954 0.610559 0.0833906
0.888045 0.612406 0.0854963
1 0.614572 0.087953
0 0.746288 0.0804608
0.118212 0.74934 0.0837568
0.249317 0.750973 0.0856336
0.386496 0.750591 0.0859236
0.523262 0.749599 0.0851911
0.651911 0.748394 0.0842603
0.772732 0.748012 0.0841535
0.887755 0.748775 0.0851606
0.999573 0.749798 0.0864729
0 0.883894 0.0883192
0.125444 0.88629 0.090959
0.255695 0.887068 0.0919814
0.391852 0.885664 0.091249
0.527504 0.883558 0.0894026
0.654994 0.881209 0.0873121
0.774655 0.879667 0.0860456
0.888548 0.879301 0.0859388
0.999344 0.879301 0.0862287
0.00672923 1 0.0953536
0.13138 1 0.096849
0.260471 1 0.0967269
0.395468 1 0.0947585
0.530022 1 0.0919051
0.656519 1 0.088838
0.775372 1 0.0867628
0.888655 1 0.0860456
0.999023 1 0.085893
1.5259e-05 0 0.15169
0.122774 0 0.151705
0.25066 0 0.150362
0.384848 0 0.147234
0.519081 0 0.143847
0.645808 0 0.14081
0.765164 0 0.139223
0.879469 0 0.139528
0.991379 0 0.140917
0 0.0672313 0.151858
0.123293 0.0671397 0.152026
0.251652 0.0660105 0.151156
0.386633 0.063386 0.148806
0.521935 0.060853 0.146548
0.649927 0.058854 0.144823
0.770733 0.0584573 0.144717
0.886534 0.059968 0.146517
0.999847 0.0624857 0.14931
0 0.198016 0.14931
0.122057 0.199145 0.150668
0.25182 0.199405 0.151186
0.388266 0.198291 0.150332
0.525032 0.197223 0.149538
0.654322 0.196582 0.149172
0.776272 0.197314 0.150179
0.892866 0.199649 0.152789
1 0.20264 0.156069
0 0.333776 0.145174
0.119463 0.336355 0.147982
0.250492 0.337926 0.149783
0.387961 0.33785 0.14995
0.525383 0.337499 0.149844
0.655009 0.337255 0.149828
0.776989 0.338033 0.150866
0.893492 0.340307 0.153384
1 0.343297 0.156619
0 0.470253 0.143816
0.118746 0.473426 0.147189
0.250004 0.475242 0.149218
0.387411 0.47512 0.149325
0.524742 0.474708 0.149142
0.654353 0.474479 0.149126
0.77644 0.47541 0.150286
0.893019 0.477775 0.15288
1 0.480659 0.156008
0 0.609842 0.143481
0.11841 0.612909 0.146807
0.249714 0.61474 0.148882
0.387274 0.614725 0.149126
0.524605 0.614282 0.148959
0.654002 0.613825 0.14876
0.775723 0.614328 0.149538
0.891722 0.616068 0.151553
1 0.618158 0.153903
0 0.750195 0.147173
0.122087 0.753216 0.150423
0.253132 0.754788 0.152239
0.390219 0.75433 0.152041
0.526909 0.753231 0.151217
0.655436 0.751934 0.150179
0.776135 0.751431 0.149935
0.89102 0.752056 0.150835
1 0.752987 0.152026
0.00337224 0.887602 0.154818
0.129046 0.889891 0.157351
0.259174 0.890547 0.158251
0.395209 0.889021 0.157
0.530739 0.886793 0.155032
0.658122 0.884337 0.152834
0.777676 0.882689 0.151461
0.891463 0.882231 0.151263
1 0.88217 0.151461
0.0100557 1 0.161471
0.134585 1 0.16286
0.263569 1 0.162615
0.398459 1 0.16022
0.532921 1 0.157183
0.659358 1 0.154055
0.778164 1 0.151934
0.891402 1 0.151186
1 1 0.151034
0.000900282 0 0.237552
0.124025 0 0.237507
0.251926 0 0.236149
0.38613 0 0.233005
0.520424 0 0.229679
0.647211 0 0.226703
0.76669 0 0.225238
0.881148 0 0.225696
0.99321 0 0.227222
0.00129702 0.0685588 0.237781
0.124666 0.0685435 0.23798
0.253147 0.0675212 0.237186
0.388251 0.0650492 0.234958
0.52369 0.0626535 0.232822
0.651804 0.0608072 0.231235
0.772778 0.0605631 0.23125
0.888701 0.062211 0.233173
1 0.0648203 0.236042
0 0.199725 0.23563
0.123903 0.200992 0.23711
0.253803 0.201419 0.237751
0.390402 0.200443 0.237018
0.52726 0.199496 0.236301
0.656611 0.198947 0.236011
0.778607 0.199741 0.237049
0.895232 0.20209 0.239658
1 0.205066 0.242908
0 0.335973 0.232029
0.121752 0.338659 0.234897
0.252857 0.340307 0.236728
0.390372 0.340276 0.236912
0.527779 0.339925 0.236774
0.657359 0.339651 0.236713
0.779293 0.340414 0.23769
0.895827 0.342718 0.240223
1 0.345724 0.243473
0 0.472679 0.2309
0.121141 0.475837 0.234226
0.252369 0.477623 0.236194
0.389776 0.477501 0.236255
0.527123 0.477119 0.236072
0.656718 0.476905 0.236057
0.77879 0.477821 0.237171
0.895354 0.480156 0.239719
1 0.482994 0.242786
0 0.612238 0.230564
0.120836 0.615351 0.23386
0.25214 0.617166 0.235904
0.38967 0.617151 0.236103
0.52694 0.616663 0.235859
0.65626 0.616159 0.235584
0.77789 0.616587 0.236255
0.893812 0.618235 0.238148
1 0.620203 0.240375
0 0.752605 0.234257
0.124437 0.755581 0.23743
0.255421 0.757092 0.239155
0.392416 0.756558 0.238819
0.528984 0.755352 0.237858
0.657359 0.753933 0.236667
0.777951 0.753307 0.236286
0.892714 0.753826 0.237049
1 0.754635 0.238117
0.00553903 0.889784 0.241688
0.131106 0.891966 0.244068
0.261112 0.8925 0.244816
0.397024 0.890867 0.243397
0.532433 0.888533 0.241291
0.659648 0.885954 0.238941
0.779095 0.884199 0.23743
0.892805 0.883635 0.237125
1 0.883513 0.237247
0.011841 1 0.247974
0.136248 1 0.249195
0.26511 1 0.248798
0.399908 1 0.24625
0.534279 1 0.243122
0.660609 1 0.239902
0.779385 1 0.237705
0.892607 1 0.236912
1 1 0.236744
0.00151064 0 0.337957
0.124605 0 0.337819
0.252506 0 0.336385
0.386755 0 0.333211
0.521096 0 0.32987
0.647944 0 0.326909
0.767575 0 0.32549
0.88217 0 0.326009
0.994385 0 0.327596
0.00195315 0.0692454 0.338308
0.125414 0.0693217 0.338521
0.254002 0.0684062 0.337774
0.389258 0.0660868 0.335607
0.524819 0.0638437 0.333532
0.65304 0.06215 0.332021
0.774166 0.0620584 0.332097
0.890211 0.0638285 0.334051
1 0.0665141 0.336919
0.00030518 0.200809 0.336599
0.125109 0.202243 0.338155
0.255177 0.202808 0.338872
0.391897 0.201984 0.338201
0.528847 0.201144 0.33753
0.658244 0.200671 0.337224
0.78027 0.201495 0.338216
0.896895 0.203861 0.340749
1 0.206806 0.343862
0 0.33753 0.333516
0.1234 0.340322 0.336416
0.254582 0.342031 0.338231
0.392111 0.342031 0.338369
0.529488 0.34168 0.33814
0.658976 0.34136 0.337972
0.780926 0.342123 0.338857
0.89749 0.344457 0.341344
1 0.347478 0.344503
0 0.474418 0.332601
0.122881 0.477562 0.335851
0.254063 0.479301 0.337682
0.391485 0.479225 0.337713
0.528832 0.478859 0.337469
0.658381 0.478645 0.337377
0.780453 0.479545 0.338399
0.896971 0.481849 0.340826
1 0.484642 0.34374
0 0.613993 0.332265
0.122576 0.617105 0.335515
0.25388 0.618936 0.337484
0.391379 0.618891 0.337575
0.528588 0.618372 0.337209
0.657801 0.617792 0.336797
0.779355 0.618143 0.337301
0.895155 0.619684 0.33901
1 0.62153 0.341024
0 0.754345 0.335943
0.126085 0.757259 0.33901
0.257008 0.758694 0.340581
0.393912 0.758068 0.340093
0.530343 0.756771 0.338949
0.658564 0.75523 0.33756
0.779034 0.754482 0.33698
0.89369 0.754894 0.33753
1 0.755581 0.338399
0.00700389 0.891264 0.343145
0.132448 0.893324 0.345342
0.262348 0.893751 0.345907
0.398138 0.891997 0.344305
0.533394 0.88954 0.342
0.660456 0.886854 0.339452
0.779797 0.884993 0.337758
0.893431 0.884367 0.337285
1 0.884184 0.337255
0.0129091 1 0.34905
0.137209 1 0.350088
0.265949 1 0.349493
0.400656 1 0.346807
0.53492 1 0.343511
0.661158 1 0.340169
0.779904 1 0.33785
0.893111 1 0.336965
1 1 0.336706
0.00175479 0 0.454185
0.124834 0 0.453956
0.252766 0 0.452445
0.387045 0 0.449241
0.521447 0 0.445884
0.648371 0 0.442969
0.768139 0 0.441611
0.882887 0 0.442176
0.995254 0 0.443824
0.00227359 0.0696117 0.454704
0.125841 0.0697795 0.454932
0.254566 0.0690013 0.454231
0.38996 0.0668345 0.452125
0.525643 0.064744 0.450111
0.653971 0.0632029 0.448661
0.775235 0.0632486 0.448783
0.891386 0.0651255 0.450752
1 0.0679026 0.45362
0.00106813 0.201602 0.453483
0.126024 0.203174 0.455116
0.256229 0.203906 0.455894
0.393103 0.203204 0.455268
0.530114 0.202472 0.454597
0.65951 0.20206 0.454261
0.781582 0.202914 0.455192
0.898207 0.20528 0.457633
1 0.208194 0.460624
0 0.338781 0.450919
0.124727 0.34165 0.453819
0.255955 0.343404 0.455604
0.393484 0.34342 0.45565
0.530831 0.343069 0.455329
0.660227 0.342702 0.455024
0.782208 0.343496 0.455848
0.898802 0.345861 0.458259
1 0.348882 0.461341
0 0.475822 0.450187
0.124239 0.478935 0.453315
0.255406 0.480644 0.455039
0.392844 0.480598 0.455024
0.53019 0.480262 0.454704
0.659693 0.480034 0.454505
0.781735 0.480919 0.455421
0.898222 0.483177 0.45771
1 0.485908 0.460472
0 0.615412 0.449866
0.123964 0.61854 0.45304
0.255268 0.620356 0.454902
0.392721 0.620264 0.454887
0.52987 0.619699 0.454383
0.658961 0.619058 0.453803
0.780423 0.619318 0.454124
0.896117 0.620752 0.455634
1 0.622477 0.457435
0.00112917 0.755703 0.453529
0.127367 0.758572 0.456443
0.258213 0.75993 0.457847
0.39501 0.759213 0.457176
0.531289 0.757794 0.455817
0.659358 0.75613 0.454231
0.779706 0.755276 0.453437
0.894255 0.755566 0.453788
1 0.75613 0.454429
0.00807202 0.892363 0.460472
0.133394 0.894301 0.46247
0.263188 0.894621 0.462821
0.39884 0.89276 0.461006
0.533959 0.890181 0.458488
0.660868 0.887373 0.455741
0.780118 0.88542 0.453864
0.893675 0.884718 0.453223
1 0.884474 0.453056
0.0135958 1 0.465995
0.137758 1 0.466835
0.266407 1 0.466041
0.401007 1 0.463172
0.535195 1 0.459724
0.661341 1 0.456245
0.780056 1 0.453803
0.893248 1 0.452827
1 1 0.452491
0.00175479 0 0.582574
0.124834 0 0.582193
0.252781 0 0.58056
0.387137 0 0.577249
0.521599 0 0.573831
0.6486 0 0.570886
0.768521 0 0.569512
0.883421 0 0.570062
0.995941 0 0.571694
0.00239567 0.0697642 0.583352
0.12607 0.0700542 0.583551
0.254932 0.0694133 0.582834
0.390478 0.0673991 0.580728
0.526284 0.0654612 0.578698
0.654704 0.0640726 0.577234
0.776104 0.0642557 0.577325
0.892363 0.0662394 0.579232
1 0.0690623 0.581979
0.00164797 0.202213 0.582681
0.126757 0.203952 0.584314
0.257115 0.204822 0.585092
0.394095 0.204242 0.584421
0.531167 0.203601 0.583673
0.660563 0.203235 0.583215
0.78265 0.20412 0.584009
0.89926 0.206455 0.586267
1 0.209323 0.589059
0 0.339834 0.580636
0.125841 0.342779 0.583459
0.257099 0.344579 0.585138
0.394629 0.344594 0.585031
0.531929 0.344213 0.584527
0.661234 0.343816 0.584009
0.783246 0.344656 0.584726
0.89987 0.347036 0.586984
1 0.350057 0.589883
0 0.476967 0.580072
0.125353 0.480049 0.583032
0.256519 0.481758 0.584604
0.393988 0.481743 0.584451
0.531319 0.481422 0.583978
0.660746 0.481193 0.583612
0.782773 0.482048 0.584329
0.899199 0.484245 0.586404
1 0.486915 0.588922
0 0.616602 0.579797
0.125124 0.61973 0.582834
0.256413 0.62153 0.584527
0.39382 0.621408 0.584314
0.530877 0.620783 0.583581
0.659831 0.620066 0.582773
0.781216 0.620233 0.582834
0.896788 0.621546 0.584054
1 0.623148 0.585565
0.00221256 0.756817 0.583429
0.128405 0.759625 0.58613
0.259159 0.760906 0.587304
0.39585 0.760067 0.586374
0.531975 0.758541 0.584726
0.659861 0.756756 0.582849
0.780102 0.755795 0.581781
0.89453 0.755962 0.581857
1 0.75642 0.582223
0.00886549 0.893187 0.590112
0.134081 0.895018 0.591836
0.263752 0.895201 0.591928
0.399283 0.893217 0.589837
0.534249 0.890532 0.587045
0.661006 0.887617 0.584024
0.780163 0.885588 0.581888
0.89366 0.884825 0.581033
1 0.884535 0.580636
0.0139925 1 0.595254
0.138048 1 0.595834
0.26659 1 0.594797
0.401114 1 0.591684
0.53521 1 0.588022
0.661265 1 0.584329
0.77995 1 0.581704
0.893156 1 0.58056
1 1 0.580072
0.00198367 0 0.720256
0.125078 0 0.719814
0.253071 0 0.718135
0.387488 0 0.714824
0.522026 0 0.711421
0.649104 0 0.708507
0.769192 0 0.707195
0.884245 0 0.707805
0.996902 0 0.709484
0.00280766 0.0702068 0.721279
0.126589 0.0706035 0.721523
0.255604 0.0701305 0.720867
0.391287 0.0682536 0.718837
0.527214 0.0664683 0.716869
0.655726 0.0652323 0.71545
0.777249 0.0655375 0.715572
0.893584 0.0675975 0.717464
1 0.0704814 0.72018
0.002533 0.203128 0.721126
0.127794 0.205005 0.722835
0.258289 0.206027 0.723674
0.395361 0.205554 0.723033
0.532479 0.204974 0.722271
0.66186 0.204654 0.721767
0.783948 0.205554 0.722469
0.900526 0.207874 0.724605
1 0.210712 0.72726
0.000854505 0.341146 0.719539
0.127214 0.344152 0.722362
0.258503 0.345983 0.723995
0.396017 0.346014 0.723796
0.533242 0.345586 0.723171
0.662501 0.34519 0.72256
0.784543 0.346059 0.723217
0.901167 0.34844 0.725383
1 0.351461 0.728191
0.000320439 0.478355 0.719081
0.126696 0.481392 0.72192
0.257893 0.483146 0.723445
0.395377 0.483146 0.723232
0.532677 0.482826 0.722683
0.662028 0.482582 0.72221
0.784024 0.483391 0.722805
0.900389 0.485542 0.724727
1 0.488136 0.727077
1.5259e-05 0.618036 0.718837
0.126528 0.621149 0.721798
0.257786 0.622934 0.7234
0.395132 0.622766 0.723064
0.532097 0.622095 0.722179
0.660929 0.621286 0.721187
0.782193 0.621347 0.721065
0.897658 0.622538 0.722087
1 0.624033 0.723384
0.00352483 0.75816 0.722393
0.129641 0.760891 0.724956
0.260304 0.762097 0.725978
0.396872 0.761135 0.724834
0.53286 0.759487 0.723003
0.660578 0.757595 0.720913
0.780697 0.756512 0.719646
0.895003 0.756573 0.719509
1 0.756924 0.719661
0.00985733 0.894209 0.728771
0.134966 0.895933 0.730327
0.264515 0.89601 0.730205
0.399924 0.893904 0.727932
0.534737 0.891096 0.724941
0.661326 0.888075 0.721736
0.780423 0.885969 0.719432
0.893858 0.885161 0.718425
1 0.884825 0.717891
0.0146029 1 0.733532
0.138552 1 0.733928
0.267002 1 0.732738
0.401434 1 0.729473
0.535439 1 0.725673
0.661418 1 0.721859
0.780087 1 0.719142
0.893309 1 0.717906
1 1 0.717357
0.00270085 0 0.852506
0.125811 0 0.852079
0.253849 0 0.850462
0.388342 0 0.847227
0.522972 0 0.843946
0.650141 0 0.841199
0.770367 0 0.84004
0.885573 0 0.840787
0.998398 0 0.842618
0.00370794 0.0711681 0.853727
0.127642 0.0717021 0.854109
0.256794 0.0713664 0.853605
0.392615 0.0696422 0.851713
0.528664 0.0680095 0.849897
0.657267 0.0669108 0.84863
0.778897 0.0673228 0.848875
0.895308 0.0694591 0.850828
1 0.0724041 0.85359
0.00392157 0.204562 0.854063
0.129335 0.206592 0.855924
0.259968 0.207736 0.856901
0.397131 0.20737 0.856352
0.534264 0.206867 0.855665
0.663615 0.206577 0.855177
0.785718 0.207462 0.855879
0.902266 0.209735 0.857984
1 0.212573 0.860639
0.00265507 0.342962 0.852888
0.129076 0.346029 0.855756
0.260365 0.347875 0.857404
0.397864 0.347875 0.857206
0.535012 0.347417 0.856519
0.66424 0.347051 0.855955
0.786313 0.347936 0.856626
0.902937 0.350332 0.858793
1 0.353338 0.861585
0.00216678 0.480201 0.852476
0.128511 0.483207 0.855268
0.259739 0.484993 0.85684
0.397238 0.485023 0.856641
0.534508 0.484703 0.856092
0.663783 0.484428 0.855604
0.785718 0.485206 0.856153
0.902037 0.487297 0.858015
1 0.489799 0.860288
0.00189212 0.619944 0.852262
0.128389 0.623056 0.855207
0.259617 0.624796 0.856779
0.396918 0.624598 0.856382
0.533776 0.623835 0.855436
0.662455 0.62295 0.854368
0.783612 0.622889 0.854124
0.898939 0.623972 0.855024
1 0.625345 0.856199
0.00527962 0.75996 0.855695
0.131319 0.762615 0.858183
0.261891 0.763714 0.859113
0.398337 0.762646 0.857862
0.534173 0.760876 0.855894
0.661707 0.758862 0.853697
0.78172 0.757671 0.852308
0.895903 0.75761 0.852049
1 0.757855 0.85211
0.0112917 0.895674 0.861738
0.136278 0.897276 0.863172
0.265705 0.897231 0.862943
0.400992 0.895018 0.860548
0.535668 0.892103 0.85745
0.662104 0.888991 0.854154
0.781125 0.886809 0.851789
0.894514 0.885939 0.850721
1 0.885573 0.850156
0.0156405 1 0.866117
0.139483 1 0.866407
0.267857 1 0.865125
0.402213 1 0.861799
0.536141 1 0.857954
0.662028 1 0.854124
0.780697 1 0.851408
0.893919 1 0.850172
1 1 0.849653
0.00373846 0 0.980468
0.126894 0 0.980072
0.254994 0 0.978515
0.389578 0 0.975372
0.524285 0 0.972229
0.65156 0 0.969619
0.771923 0 0.968597
0.887282 0 0.969512
1 0 0.971496
0.0049897 0.0724804 0.981918
0.129061 0.073167 0.982437
0.258366 0.0729839 0.982086
0.394324 0.0714122 0.980346
0.530495 0.0699168 0.978683
0.659159 0.0689708 0.977554
0.780896 0.0694743 0.97789
0.897368 0.0716716 0.979904
1 0.0746471 0.982696
0.00570687 0.206378 0.982757
0.131273 0.20856 0.984771
0.262013 0.209827 0.985855
0.399237 0.209537 0.985397
0.5364 0.209079 0.984756
0.665721 0.208804 0.984298
0.787793 0.209689 0.984985
0.904295 0.211917 0.98703
1 0.214786 0.989715
0.00480659 0.345129 0.981949
0.131273 0.348241 0.984863
0.262562 0.350088 0.986511
0.400031 0.350072 0.986282
0.537102 0.349569 0.98558
0.666316 0.349248 0.985046
0.788403 0.350164 0.985733
0.905028 0.352544 0.987915
1 0.35552 0.990677
0.0043183 0.482368 0.981537
0.130678 0.485374 0.984344
0.261936 0.48719 0.985946
0.399435 0.487236 0.985763
0.536645 0.486885 0.985199
0.665827 0.486595 0.98468
0.787732 0.487327 0.985183
0.903975 0.489342 0.986969
1 0.491753 0.989151
0.00408942 0.622171 0.981369
0.130571 0.625269 0.984298
0.261753 0.626978 0.985824
0.398993 0.626719 0.985382
0.535744 0.625895 0.984375
0.664256 0.624903 0.9832
0.785306 0.624735 0.982849
0.900526 0.625696 0.983612
1 0.626963 0.98468
0.00735485 0.762051 0.98468
0.133303 0.76463 0.987091
0.263767 0.765621 0.987884
0.400092 0.764446 0.986526
0.53576 0.762554 0.984451
0.663127 0.760433 0.982132
0.783017 0.759121 0.980636
0.897093 0.758938 0.980255
1 0.759106 0.98024
0.0130159 0.897429 0.990372
0.137881 0.898909 0.991684
0.267185 0.898741 0.991348
0.40235 0.896422 0.98883
0.536873 0.8934 0.985626
0.663172 0.890211 0.982238
0.782132 0.887968 0.979812
0.895476 0.887037 0.978698
1 0.886656 0.978119
0.016968 1 0.994354
0.140719 1 0.994553
0.269001 1 0.993194
0.403296 1 0.989807
0.537148 1 0.985931
0.662959 1 0.982071
0.781628 1 0.979355
0.894865 1 0.978134
1 1 0.977203
